public/svgs/twin/title-clone-03.svg

<svg width="900" height="241" viewBox="0 0 900 241" fill="none" xmlns="http://www.w3.org/2000/svg">
<path d="M374.792 107.68V115.48L381.872 121H412.232C425.272 121 431.792 114.48 431.792 101.44V93.6402C431.792 83.0802 427.152 76.8402 417.872 74.9202L393.512 70.1202C390.792 69.5602 389.432 67.7602 389.432 64.7202V56.6802C389.432 53.2402 391.192 51.5202 394.712 51.5202H429.392V43.7202L422.312 38.2002H394.352C381.312 38.2002 374.792 44.7202 374.792 57.7602V64.3602C374.792 75.0002 379.432 81.2402 388.712 83.0802L413.072 88.0002C415.792 88.5602 417.152 90.3602 417.152 93.4002V102.52C417.152 105.96 415.392 107.68 411.872 107.68H374.792Z" fill="#BB1212"/>
<path d="M374.792 107.68V115.48L381.872 121H412.232C425.272 121 431.792 114.48 431.792 101.44V93.6402C431.792 83.0802 427.152 76.8402 417.872 74.9202L393.512 70.1202C390.792 69.5602 389.432 67.7602 389.432 64.7202V56.6802C389.432 53.2402 391.192 51.5202 394.712 51.5202H429.392V43.7202L422.312 38.2002H394.352C381.312 38.2002 374.792 44.7202 374.792 57.7602V64.3602C374.792 75.0002 379.432 81.2402 388.712 83.0802L413.072 88.0002C415.792 88.5602 417.152 90.3602 417.152 93.4002V102.52C417.152 105.96 415.392 107.68 411.872 107.68H374.792Z" fill="black"/>
<path d="M0.199951 241V158.2H55.88V171.52H14.84V195.04H52.28V208.36H14.84V241H0.199951Z" fill="#BB1212"/>
<path d="M0.199951 241V158.2H55.88V171.52H14.84V195.04H52.28V208.36H14.84V241H0.199951Z" fill="black"/>
<path d="M64.8921 158.2V241H79.5321V158.2H64.8921Z" fill="#BB1212"/>
<path d="M64.8921 158.2V241H79.5321V158.2H64.8921Z" fill="black"/>
<path d="M87.8113 171.52V158.2H154.651V171.52H128.611V241H113.851V171.52H87.8113Z" fill="#BB1212"/>
<path d="M87.8113 171.52V158.2H154.651V171.52H128.611V241H113.851V171.52H87.8113Z" fill="black"/>
<path d="M162.988 158.2V241H177.628V181.96L214.468 241H230.308V158.2H215.668V217.24L178.948 158.2H162.988Z" fill="#BB1212"/>
<path d="M162.988 158.2V241H177.628V181.96L214.468 241H230.308V158.2H215.668V217.24L178.948 158.2H162.988Z" fill="black"/>
<path d="M245.961 241V158.2H301.641V171.52H260.601V191.44H298.041V204.76H260.601V227.68H301.641V241H245.961Z" fill="#BB1212"/>
<path d="M245.961 241V158.2H301.641V171.52H260.601V191.44H298.041V204.76H260.601V227.68H301.641V241H245.961Z" fill="black"/>
<path d="M309.397 227.68V235.48L316.477 241H346.837C359.877 241 366.397 234.48 366.397 221.44V213.64C366.397 203.08 361.757 196.84 352.477 194.92L328.117 190.12C325.397 189.56 324.037 187.76 324.037 184.72V176.68C324.037 173.24 325.797 171.52 329.317 171.52H363.997V163.72L356.917 158.2H328.957C315.917 158.2 309.397 164.72 309.397 177.76V184.36C309.397 195 314.037 201.24 323.317 203.08L347.677 208C350.397 208.56 351.757 210.36 351.757 213.4V222.52C351.757 225.96 349.997 227.68 346.477 227.68H309.397Z" fill="#BB1212"/>
<path d="M309.397 227.68V235.48L316.477 241H346.837C359.877 241 366.397 234.48 366.397 221.44V213.64C366.397 203.08 361.757 196.84 352.477 194.92L328.117 190.12C325.397 189.56 324.037 187.76 324.037 184.72V176.68C324.037 173.24 325.797 171.52 329.317 171.52H363.997V163.72L356.917 158.2H328.957C315.917 158.2 309.397 164.72 309.397 177.76V184.36C309.397 195 314.037 201.24 323.317 203.08L347.677 208C350.397 208.56 351.757 210.36 351.757 213.4V222.52C351.757 225.96 349.997 227.68 346.477 227.68H309.397Z" fill="black"/>
<path d="M374.792 235.48V227.68H411.872C415.392 227.68 417.152 225.96 417.152 222.52V213.4C417.152 210.36 415.792 208.56 413.072 208L388.712 203.08C379.432 201.24 374.792 195 374.792 184.36V177.76C374.792 164.72 381.312 158.2 394.352 158.2H422.312L429.392 163.72V171.52H394.712C391.192 171.52 389.432 173.24 389.432 176.68V184.72C389.432 187.76 390.792 189.56 393.512 190.12L417.872 194.92C427.152 196.84 431.792 203.08 431.792 213.64V221.44C431.792 234.48 425.272 241 412.232 241H381.872L374.792 235.48Z" fill="#BB1212"/>
<path d="M374.792 235.48V227.68H411.872C415.392 227.68 417.152 225.96 417.152 222.52V213.4C417.152 210.36 415.792 208.56 413.072 208L388.712 203.08C379.432 201.24 374.792 195 374.792 184.36V177.76C374.792 164.72 381.312 158.2 394.352 158.2H422.312L429.392 163.72V171.52H394.712C391.192 171.52 389.432 173.24 389.432 176.68V184.72C389.432 187.76 390.792 189.56 393.512 190.12L417.872 194.92C427.152 196.84 431.792 203.08 431.792 213.64V221.44C431.792 234.48 425.272 241 412.232 241H381.872L374.792 235.48Z" fill="black"/>
<path d="M467.816 158.2V241H482.456V208.36H519.896V195.04H482.456V171.52H523.496V158.2H467.816Z" fill="#BB1212"/>
<path d="M467.816 158.2V241H482.456V208.36H519.896V195.04H482.456V171.52H523.496V158.2H467.816Z" fill="black"/>
<path d="M532.508 241V158.2H547.148V241H532.508Z" fill="#BB1212"/>
<path d="M532.508 241V158.2H547.148V241H532.508Z" fill="black"/>
<path d="M555.427 158.2V171.52H581.467V241H596.227V171.52H622.267V158.2H555.427Z" fill="#BB1212"/>
<path d="M555.427 158.2V171.52H581.467V241H596.227V171.52H622.267V158.2H555.427Z" fill="black"/>
<path d="M630.603 241V158.2H646.563L683.283 217.24V158.2H697.923V241H682.083L645.243 181.96V241H630.603Z" fill="#BB1212"/>
<path d="M630.603 241V158.2H646.563L683.283 217.24V158.2H697.923V241H682.083L645.243 181.96V241H630.603Z" fill="black"/>
<path d="M713.576 158.2V241H769.256V227.68H728.216V204.76H765.656V191.44H728.216V171.52H769.256V158.2H713.576Z" fill="#BB1212"/>
<path d="M713.576 158.2V241H769.256V227.68H728.216V204.76H765.656V191.44H728.216V171.52H769.256V158.2H713.576Z" fill="black"/>
<path d="M777.012 235.48V227.68H814.092C817.612 227.68 819.372 225.96 819.372 222.52V213.4C819.372 210.36 818.012 208.56 815.292 208L790.932 203.08C781.652 201.24 777.012 195 777.012 184.36V177.76C777.012 164.72 783.532 158.2 796.572 158.2H824.532L831.612 163.72V171.52H796.932C793.412 171.52 791.652 173.24 791.652 176.68V184.72C791.652 187.76 793.013 189.56 795.732 190.12L820.092 194.92C829.372 196.84 834.012 203.08 834.012 213.64V221.44C834.012 234.48 827.492 241 814.452 241H784.092L777.012 235.48Z" fill="#BB1212"/>
<path d="M777.012 235.48V227.68H814.092C817.612 227.68 819.372 225.96 819.372 222.52V213.4C819.372 210.36 818.012 208.56 815.292 208L790.932 203.08C781.652 201.24 777.012 195 777.012 184.36V177.76C777.012 164.72 783.532 158.2 796.572 158.2H824.532L831.612 163.72V171.52H796.932C793.412 171.52 791.652 173.24 791.652 176.68V184.72C791.652 187.76 793.013 189.56 795.732 190.12L820.092 194.92C829.372 196.84 834.012 203.08 834.012 213.64V221.44C834.012 234.48 827.492 241 814.452 241H784.092L777.012 235.48Z" fill="black"/>
<path d="M842.408 235.48V227.68H879.488C883.008 227.68 884.768 225.96 884.768 222.52V213.4C884.768 210.36 883.408 208.56 880.688 208L856.328 203.08C847.048 201.24 842.408 195 842.408 184.36V177.76C842.408 164.72 848.928 158.2 861.968 158.2H889.928L897.008 163.72V171.52H862.328C858.808 171.52 857.048 173.24 857.048 176.68V184.72C857.048 187.76 858.408 189.56 861.128 190.12L885.488 194.92C894.768 196.84 899.408 203.08 899.408 213.64V221.44C899.408 234.48 892.888 241 879.848 241H849.488L842.408 235.48Z" fill="#BB1212"/>
<path d="M842.408 235.48V227.68H879.488C883.008 227.68 884.768 225.96 884.768 222.52V213.4C884.768 210.36 883.408 208.56 880.688 208L856.328 203.08C847.048 201.24 842.408 195 842.408 184.36V177.76C842.408 164.72 848.928 158.2 861.968 158.2H889.928L897.008 163.72V171.52H862.328C858.808 171.52 857.048 173.24 857.048 176.68V184.72C857.048 187.76 858.408 189.56 861.128 190.12L885.488 194.92C894.768 196.84 899.408 203.08 899.408 213.64V221.44C899.408 234.48 892.888 241 879.848 241H849.488L842.408 235.48Z" fill="black"/>
<path d="M309.397 115.48V107.68H346.477C349.997 107.68 351.757 105.96 351.757 102.52V93.4002C351.757 90.3602 350.397 88.5602 347.677 88.0002L323.317 83.0802C314.037 81.2402 309.397 75.0002 309.397 64.3602V57.7602C309.397 44.7202 315.917 38.2002 328.957 38.2002H356.917L363.997 43.7202V51.5202H329.317C325.797 51.5202 324.037 53.2402 324.037 56.6802V64.7202C324.037 67.7602 325.397 69.5602 328.117 70.1202L352.477 74.9202C361.757 76.8402 366.397 83.0802 366.397 93.6402V101.44C366.397 114.48 359.877 121 346.837 121H316.477L309.397 115.48Z" fill="#BB1212"/>
<path d="M309.397 115.48V107.68H346.477C349.997 107.68 351.757 105.96 351.757 102.52V93.4002C351.757 90.3602 350.397 88.5602 347.677 88.0002L323.317 83.0802C314.037 81.2402 309.397 75.0002 309.397 64.3602V57.7602C309.397 44.7202 315.917 38.2002 328.957 38.2002H356.917L363.997 43.7202V51.5202H329.317C325.797 51.5202 324.037 53.2402 324.037 56.6802V64.7202C324.037 67.7602 325.397 69.5602 328.117 70.1202L352.477 74.9202C361.757 76.8402 366.397 83.0802 366.397 93.6402V101.44C366.397 114.48 359.877 121 346.837 121H316.477L309.397 115.48Z" fill="black"/>
<path d="M245.961 38.2002V121H301.641V107.68H260.601V84.7602H298.041V71.4402H260.601V51.5202H301.641V38.2002H245.961Z" fill="#BB1212"/>
<path d="M245.961 38.2002V121H301.641V107.68H260.601V84.7602H298.041V71.4402H260.601V51.5202H301.641V38.2002H245.961Z" fill="black"/>
<path d="M162.988 121V38.2002H178.948L215.668 97.2402V38.2002H230.308V121H214.468L177.628 61.9602V121H162.988Z" fill="#BB1212"/>
<path d="M162.988 121V38.2002H178.948L215.668 97.2402V38.2002H230.308V121H214.468L177.628 61.9602V121H162.988Z" fill="black"/>
<path d="M87.8113 38.2002V51.5202H113.851V121H128.611V51.5202H154.651V38.2002H87.8113Z" fill="#BB1212"/>
<path d="M87.8113 38.2002V51.5202H113.851V121H128.611V51.5202H154.651V38.2002H87.8113Z" fill="black"/>
<path d="M64.8921 121V38.2002H79.5321V121H64.8921Z" fill="#BB1212"/>
<path d="M64.8921 121V38.2002H79.5321V121H64.8921Z" fill="black"/>
<path d="M0.199951 38.2002V121H14.84V88.3602H52.28V75.0402H14.84V51.5202H55.88V38.2002H0.199951Z" fill="#BB1212"/>
<path d="M0.199951 38.2002V121H14.84V88.3602H52.28V75.0402H14.84V51.5202H55.88V38.2002H0.199951Z" fill="black"/>
<path d="M0.100098 5.24369V15.4357C0.100098 18.4784 1.62143 19.9997 4.6641 19.9997H12.2801L13.9321 18.7117V16.8917H4.7481C3.92676 16.8917 3.5161 16.4904 3.5161 15.6877V4.99169C3.5161 4.18902 3.92676 3.78769 4.7481 3.78769H13.9321V1.96769L12.2801 0.679688H4.6641C1.62143 0.679688 0.100098 2.20102 0.100098 5.24369Z" fill="#C11111"/>
<path d="M17.7161 19.9997V0.679688H21.1321V16.8917H29.8681V19.9997H17.7161Z" fill="#C11111"/>
<path fill-rule="evenodd" clip-rule="evenodd" d="M32.6392 5.24369V15.4357C32.6392 18.4784 34.1605 19.9997 37.2032 19.9997H43.6152C46.6578 19.9997 48.1792 18.4784 48.1792 15.4357V5.24369C48.1792 2.20102 46.6578 0.679688 43.6152 0.679688H37.2032C34.1605 0.679688 32.6392 2.20102 32.6392 5.24369ZM37.2872 16.8917C36.4658 16.8917 36.0552 16.4904 36.0552 15.6877V4.99169C36.0552 4.18902 36.4658 3.78769 37.2872 3.78769H43.5312C44.3525 3.78769 44.7632 4.18902 44.7632 4.99169V15.6877C44.7632 16.4904 44.3525 16.8917 43.5312 16.8917H37.2872Z" fill="#C11111"/>
<path d="M52.6614 19.9997V0.679688H56.3854L64.9534 14.4557V0.679688H68.3694V19.9997H64.6734L56.0774 6.22369V19.9997H52.6614Z" fill="#C11111"/>
<path d="M73.1418 0.679688V19.9997H86.1339V16.8917H76.5578V11.5437H85.2938V8.43569H76.5578V3.78769H86.1339V0.679688H73.1418Z" fill="#C11111"/>
<path fill-rule="evenodd" clip-rule="evenodd" d="M106.334 5.24369V15.4357C106.334 18.4784 107.855 19.9997 110.898 19.9997H114.818C117.86 19.9997 119.382 18.4784 119.382 15.4357V5.24369C119.382 2.20102 117.86 0.679688 114.818 0.679688H110.898C107.855 0.679688 106.334 2.20102 106.334 5.24369ZM110.982 16.8917C110.179 16.8917 109.778 16.4904 109.778 15.6877V4.99169C109.778 4.18902 110.179 3.78769 110.982 3.78769H114.734C115.536 3.78769 115.938 4.18902 115.938 4.99169V15.6877C115.938 16.4904 115.536 16.8917 114.734 16.8917H110.982Z" fill="#C11111"/>
<path d="M122.801 16.8917V18.7117L124.453 19.9997H131.005C134.048 19.9997 135.569 18.4784 135.569 15.4357V12.7197C135.569 11.973 135.336 11.3664 134.869 10.8997L133.889 9.91969L134.869 8.93969C135.336 8.47302 135.569 7.86636 135.569 7.11969V5.24369C135.569 2.20102 134.048 0.679688 131.005 0.679688H124.733L123.081 1.96769V3.78769H130.921C131.724 3.78769 132.125 4.18902 132.125 4.99169V7.20369C132.125 8.02502 131.724 8.43569 130.921 8.43569H124.873V11.5437H130.921C131.724 11.5437 132.125 11.945 132.125 12.7477V15.6877C132.125 16.4904 131.724 16.8917 130.921 16.8917H122.801Z" fill="#C11111"/>
<path d="M89 17H103V20H89V17Z" fill="#C11111"/>
</svg>

<svg xmlns="http://www.w3.org/2000/svg" width="900" height="241" fill="none" viewBox="0 0 900 241"><path fill="#bb1212" d="M374.792 107.68v7.8l7.08 5.52h30.36q19.56 0 19.56-19.56v-7.8q0-15.84-13.92-18.72l-24.36-4.8q-4.08-.84-4.08-5.4v-8.04q0-5.16 5.28-5.16h34.68v-7.8l-7.08-5.52h-27.96q-19.56 0-19.56 19.56v6.6q0 15.96 13.92 18.72l24.36 4.92q4.08.84 4.08 5.4v9.12q0 5.16-5.28 5.16z"/><path fill="#000" d="M374.792 107.68v7.8l7.08 5.52h30.36q19.56 0 19.56-19.56v-7.8q0-15.84-13.92-18.72l-24.36-4.8q-4.08-.84-4.08-5.4v-8.04q0-5.16 5.28-5.16h34.68v-7.8l-7.08-5.52h-27.96q-19.56 0-19.56 19.56v6.6q0 15.96 13.92 18.72l24.36 4.92q4.08.84 4.08 5.4v9.12q0 5.16-5.28 5.16z"/><path fill="#bb1212" d="M.2 241v-82.8h55.68v13.32H14.84v23.52h37.44v13.32H14.84V241z"/><path fill="#000" d="M.2 241v-82.8h55.68v13.32H14.84v23.52h37.44v13.32H14.84V241z"/><path fill="#bb1212" d="M64.892 158.2V241h14.64v-82.8z"/><path fill="#000" d="M64.892 158.2V241h14.64v-82.8z"/><path fill="#bb1212" d="M87.811 171.52V158.2h66.84v13.32h-26.04V241h-14.76v-69.48z"/><path fill="#000" d="M87.811 171.52V158.2h66.84v13.32h-26.04V241h-14.76v-69.48z"/><path fill="#bb1212" d="M162.988 158.2V241h14.64v-59.04l36.84 59.04h15.84v-82.8h-14.64v59.04l-36.72-59.04z"/><path fill="#000" d="M162.988 158.2V241h14.64v-59.04l36.84 59.04h15.84v-82.8h-14.64v59.04l-36.72-59.04z"/><path fill="#bb1212" d="M245.961 241v-82.8h55.68v13.32h-41.04v19.92h37.44v13.32h-37.44v22.92h41.04V241z"/><path fill="#000" d="M245.961 241v-82.8h55.68v13.32h-41.04v19.92h37.44v13.32h-37.44v22.92h41.04V241z"/><path fill="#bb1212" d="M309.397 227.68v7.8l7.08 5.52h30.36q19.56 0 19.56-19.56v-7.8q0-15.84-13.92-18.72l-24.36-4.8q-4.08-.84-4.08-5.4v-8.04q0-5.16 5.28-5.16h34.68v-7.8l-7.08-5.52h-27.96q-19.56 0-19.56 19.56v6.6q0 15.96 13.92 18.72l24.36 4.92q4.08.84 4.08 5.4v9.12q0 5.16-5.28 5.16z"/><path fill="#000" d="M309.397 227.68v7.8l7.08 5.52h30.36q19.56 0 19.56-19.56v-7.8q0-15.84-13.92-18.72l-24.36-4.8q-4.08-.84-4.08-5.4v-8.04q0-5.16 5.28-5.16h34.68v-7.8l-7.08-5.52h-27.96q-19.56 0-19.56 19.56v6.6q0 15.96 13.92 18.72l24.36 4.92q4.08.84 4.08 5.4v9.12q0 5.16-5.28 5.16z"/><path fill="#bb1212" d="M374.792 235.48v-7.8h37.08q5.28 0 5.28-5.16v-9.12q0-4.56-4.08-5.4l-24.36-4.92q-13.92-2.76-13.92-18.72v-6.6q0-19.56 19.56-19.56h27.96l7.08 5.52v7.8h-34.68q-5.28 0-5.28 5.16v8.04q0 4.56 4.08 5.4l24.36 4.8q13.92 2.88 13.92 18.72v7.8q0 19.56-19.56 19.56h-30.36z"/><path fill="#000" d="M374.792 235.48v-7.8h37.08q5.28 0 5.28-5.16v-9.12q0-4.56-4.08-5.4l-24.36-4.92q-13.92-2.76-13.92-18.72v-6.6q0-19.56 19.56-19.56h27.96l7.08 5.52v7.8h-34.68q-5.28 0-5.28 5.16v8.04q0 4.56 4.08 5.4l24.36 4.8q13.92 2.88 13.92 18.72v7.8q0 19.56-19.56 19.56h-30.36z"/><path fill="#bb1212" d="M467.816 158.2V241h14.64v-32.64h37.44v-13.32h-37.44v-23.52h41.04V158.2z"/><path fill="#000" d="M467.816 158.2V241h14.64v-32.64h37.44v-13.32h-37.44v-23.52h41.04V158.2z"/><path fill="#bb1212" d="M532.508 241v-82.8h14.64V241z"/><path fill="#000" d="M532.508 241v-82.8h14.64V241z"/><path fill="#bb1212" d="M555.427 158.2v13.32h26.04V241h14.76v-69.48h26.04V158.2z"/><path fill="#000" d="M555.427 158.2v13.32h26.04V241h14.76v-69.48h26.04V158.2z"/><path fill="#bb1212" d="M630.603 241v-82.8h15.96l36.72 59.04V158.2h14.64V241h-15.84l-36.84-59.04V241z"/><path fill="#000" d="M630.603 241v-82.8h15.96l36.72 59.04V158.2h14.64V241h-15.84l-36.84-59.04V241z"/><path fill="#bb1212" d="M713.576 158.2V241h55.68v-13.32h-41.04v-22.92h37.44v-13.32h-37.44v-19.92h41.04V158.2z"/><path fill="#000" d="M713.576 158.2V241h55.68v-13.32h-41.04v-22.92h37.44v-13.32h-37.44v-19.92h41.04V158.2z"/><path fill="#bb1212" d="M777.012 235.48v-7.8h37.08q5.28 0 5.28-5.16v-9.12q0-4.56-4.08-5.4l-24.36-4.92q-13.92-2.76-13.92-18.72v-6.6q0-19.56 19.56-19.56h27.96l7.08 5.52v7.8h-34.68q-5.28 0-5.28 5.16v8.04q0 4.56 4.08 5.4l24.36 4.8q13.92 2.88 13.92 18.72v7.8q0 19.56-19.56 19.56h-30.36z"/><path fill="#000" d="M777.012 235.48v-7.8h37.08q5.28 0 5.28-5.16v-9.12q0-4.56-4.08-5.4l-24.36-4.92q-13.92-2.76-13.92-18.72v-6.6q0-19.56 19.56-19.56h27.96l7.08 5.52v7.8h-34.68q-5.28 0-5.28 5.16v8.04q0 4.56 4.08 5.4l24.36 4.8q13.92 2.88 13.92 18.72v7.8q0 19.56-19.56 19.56h-30.36z"/><path fill="#bb1212" d="M842.408 235.48v-7.8h37.08q5.28 0 5.28-5.16v-9.12q0-4.56-4.08-5.4l-24.36-4.92q-13.92-2.76-13.92-18.72v-6.6q0-19.56 19.56-19.56h27.96l7.08 5.52v7.8h-34.68q-5.28 0-5.28 5.16v8.04q0 4.56 4.08 5.4l24.36 4.8q13.92 2.88 13.92 18.72v7.8q0 19.56-19.56 19.56h-30.36z"/><path fill="#000" d="M842.408 235.48v-7.8h37.08q5.28 0 5.28-5.16v-9.12q0-4.56-4.08-5.4l-24.36-4.92q-13.92-2.76-13.92-18.72v-6.6q0-19.56 19.56-19.56h27.96l7.08 5.52v7.8h-34.68q-5.28 0-5.28 5.16v8.04q0 4.56 4.08 5.4l24.36 4.8q13.92 2.88 13.92 18.72v7.8q0 19.56-19.56 19.56h-30.36z"/><path fill="#bb1212" d="M309.397 115.48v-7.8h37.08q5.28 0 5.28-5.16V93.4q0-4.56-4.08-5.4l-24.36-4.92q-13.92-2.76-13.92-18.72v-6.6q0-19.56 19.56-19.56h27.96l7.08 5.52v7.8h-34.68q-5.28 0-5.28 5.16v8.04q0 4.56 4.08 5.4l24.36 4.8q13.92 2.88 13.92 18.72v7.8q0 19.56-19.56 19.56h-30.36z"/><path fill="#000" d="M309.397 115.48v-7.8h37.08q5.28 0 5.28-5.16V93.4q0-4.56-4.08-5.4l-24.36-4.92q-13.92-2.76-13.92-18.72v-6.6q0-19.56 19.56-19.56h27.96l7.08 5.52v7.8h-34.68q-5.28 0-5.28 5.16v8.04q0 4.56 4.08 5.4l24.36 4.8q13.92 2.88 13.92 18.72v7.8q0 19.56-19.56 19.56h-30.36z"/><path fill="#bb1212" d="M245.961 38.2V121h55.68v-13.32h-41.04V84.76h37.44V71.44h-37.44V51.52h41.04V38.2z"/><path fill="#000" d="M245.961 38.2V121h55.68v-13.32h-41.04V84.76h37.44V71.44h-37.44V51.52h41.04V38.2z"/><path fill="#bb1212" d="M162.988 121V38.2h15.96l36.72 59.04V38.2h14.64V121h-15.84l-36.84-59.04V121z"/><path fill="#000" d="M162.988 121V38.2h15.96l36.72 59.04V38.2h14.64V121h-15.84l-36.84-59.04V121z"/><path fill="#bb1212" d="M87.811 38.2v13.32h26.04V121h14.76V51.52h26.04V38.2z"/><path fill="#000" d="M87.811 38.2v13.32h26.04V121h14.76V51.52h26.04V38.2z"/><path fill="#bb1212" d="M64.892 121V38.2h14.64V121z"/><path fill="#000" d="M64.892 121V38.2h14.64V121z"/><path fill="#bb1212" d="M.2 38.2V121h14.64V88.36h37.44V75.04H14.84V51.52h41.04V38.2z"/><path fill="#000" d="M.2 38.2V121h14.64V88.36h37.44V75.04H14.84V51.52h41.04V38.2z"/><path fill="#c11111" d="M.1 5.244v10.192Q.1 19.999 4.664 20h7.616l1.652-1.288v-1.82H4.748q-1.232 0-1.232-1.204V4.992q0-1.204 1.232-1.204h9.184v-1.82L12.28.68H4.664Q.1.68.1 5.244M17.716 20V.68h3.416v16.212h8.736V20z"/><path fill="#c11111" fill-rule="evenodd" d="M32.64 5.244v10.192q0 4.563 4.563 4.564h6.412q4.564 0 4.564-4.564V5.244Q48.18.68 43.615.68h-6.412q-4.564 0-4.564 4.564m4.647 11.648q-1.232 0-1.232-1.204V4.992q0-1.204 1.232-1.204h6.244q1.233 0 1.232 1.204v10.696q0 1.203-1.232 1.204z" clip-rule="evenodd"/><path fill="#c11111" d="M52.661 20V.68h3.724l8.568 13.776V.68h3.416V20h-3.696L56.077 6.224V20zM73.142.68V20h12.992v-3.108h-9.576v-5.348h8.736V8.436h-8.736V3.788h9.576V.68z"/><path fill="#c11111" fill-rule="evenodd" d="M106.334 5.244v10.192q0 4.563 4.564 4.564h3.92q4.564 0 4.564-4.564V5.244q0-4.564-4.564-4.564h-3.92q-4.564 0-4.564 4.564m4.648 11.648q-1.204 0-1.204-1.204V4.992q0-1.204 1.204-1.204h3.752q1.204 0 1.204 1.204v10.696q0 1.203-1.204 1.204z" clip-rule="evenodd"/><path fill="#c11111" d="M122.801 16.892v1.82L124.453 20h6.552q4.564 0 4.564-4.564V12.72q0-1.12-.7-1.82l-.98-.98.98-.98q.7-.7.7-1.82V5.244q0-4.564-4.564-4.564h-6.272l-1.652 1.288v1.82h7.84q1.204 0 1.204 1.204v2.212q0 1.232-1.204 1.232h-6.048v3.108h6.048q1.204 0 1.204 1.204v2.94q0 1.203-1.204 1.204zM89 17h14v3H89z"/></svg>
